X:74
T: HIER UNTER DIESEM BAEUMELEIN
N: E0683C
O: Europa, Mitteleuropa, Deutschland, Gransee, Roennebeck
R: Liebes - Lied, Leid, Klage
M: 6/8
L: 1/16
K: F
C2 | F4G2A4B2 | c4A2F4
F2 | B4d2f4d2 | c6z4
cB | A4A2c4B2 | G4d2c4
B2 | A6G6 | F6z4
cB | A4A2c4B2 | G4d2c4
B2 | A6G6 | F6z4

